communes/5559.svg

<?xml version="1.0" encoding="UTF-8"?>
<svg version="1.0" viewBox="0 0 603 763" xmlns="http://www.w3.org/2000/svg" xmlns:cc="http://creativecommons.org/ns#" xmlns:dc="http://purl.org/dc/elements/1.1/" xmlns:rdf="http://www.w3.org/1999/02/22-rdf-syntax-ns#" xmlns:xlink="http://www.w3.org/1999/xlink">
<metadata>
<rdf:RDF>
<cc:Work rdf:about="">
<dc:format>image/svg+xml</dc:format>
<dc:type rdf:resource="http://purl.org/dc/dcmitype/StillImage"/>
<dc:date>07-AUG-2006</dc:date>
<dc:creator>
<cc:Agent>
<dc:title>Jérôme BLUM (wagner51)</dc:title>
</cc:Agent>
</dc:creator>
<cc:license rdf:resource="http://creativecommons.org/licenses/GPL/2.0/"/>
<dc:coverage/>
<dc:description>Gabarit pour le Projet:Blasons de WIkipédia</dc:description>
<dc:subject>
<rdf:Bag>
<rdf:li>blason suisse modèle gabarit projet blasons</rdf:li>
</rdf:Bag>
</dc:subject>
<dc:language>fr</dc:language>
<dc:title>Gabrit d'un blason suisse</dc:title>
</cc:Work>
<cc:License rdf:about="http://creativecommons.org/licenses/GPL/2.0/">
<cc:permits rdf:resource="http://web.resource.org/cc/Reproduction"/>
<cc:permits rdf:resource="http://web.resource.org/cc/Distribution"/>
<cc:requires rdf:resource="http://web.resource.org/cc/Notice"/>
<cc:permits rdf:resource="http://web.resource.org/cc/DerivativeWorks"/>
<cc:requires rdf:resource="http://web.resource.org/cc/ShareAlike"/>
<cc:requires rdf:resource="http://web.resource.org/cc/SourceCode"/>
</cc:License>
</rdf:RDF>
</metadata>
<defs>
<radialGradient id="a" cx="858.04" cy="579.93" r="300" gradientTransform="matrix(1.215 1.5316e-24 1.4647e-23 1.2667 -839.19 -490.49)" gradientUnits="userSpaceOnUse">
<stop stop-color="#fff" stop-opacity=".31373" offset="0"/>
<stop stop-color="#fff" stop-opacity=".25098" offset=".19"/>
<stop stop-color="#6b6b6b" stop-opacity=".12549" offset=".6"/>
<stop stop-opacity=".12549" offset="1"/>
</radialGradient>
</defs>
<desc>Coat of Arms of Canton of Freiburg (Fribourg)</desc>
<g>
<path d="m1.5 1.5v458.87c0 166.31 134.31 301.13 300 301.13 165.69 0 300-134.82 300-301.13v-458.87h-600z" fill="#2b5df2"/>
<g fill="#fcef3c" stroke="#000" stroke-linecap="round" stroke-linejoin="round" stroke-width="3">
<circle transform="translate(-.038 -.045)" cx="301.54" cy="473.73" r="29.91"/>
<circle transform="translate(-.038 -.045)" cx="301.54" cy="686.3" r="20.212"/>
<path d="m271.13 628.42c-4.372-1.197-10.357-1e-3 -13.743 3.252-4.197 4.035-4.198 11.222 0 15.255 3.167 3.043 7.817 3.787 11.712 2.237 2.308 20.821-57.415 16.484-77.188-26.061-5.029-10.82-7.692-21.171-7.692-31.461 0-27.195 29.845-45.461 58.911-32.151-3.804-18.732-22.986-22.145-34.05-22.523 6.545-6.028 14.21-11.372 22.806-15.892 31.785-16.707 38.193-39.276 34.768-57.834-1.696-9.193-8.916-15.897-18.649-15.897s-17.623 7.583-17.623 16.934c0 9.355 7.89 16.936 17.623 16.936 5.538 24.047-54.804 1.448-88.977 49.156-36.902 51.52 8.363 114.61 41.479 133.83 30.95 17.962 68.711 19.19 81.822 6.591 14.801-14.222 10.276-36.489-11.199-42.375zm172.84-98.05c-34.172-47.708-94.514-25.109-88.978-49.156 9.733 0 17.623-7.58 17.623-16.936 0-9.351-7.89-16.934-17.623-16.934-9.732 0-16.952 6.704-18.648 15.897-3.425 18.558 2.982 41.127 34.769 57.834 8.596 4.52 16.26 9.863 22.804 15.892-11.062 0.379-30.245 3.791-34.049 22.523 29.067-13.31 58.911 4.956 58.911 32.151 0 10.29-2.663 20.641-7.692 31.461-19.772 42.545-79.495 46.882-77.187 26.061 3.896 1.55 8.544 0.806 11.711-2.237 4.198-4.033 4.198-11.22 0-15.255-3.385-3.253-9.37-4.449-13.742-3.252-21.476 5.886-26.001 28.152-11.199 42.374 13.111 12.6 50.872 11.371 81.821-6.591 33.117-19.219 78.38-82.312 41.479-133.83z"/>
<path d="m319.75 594.5s11.638-18.278 33.687-31.601c0 0-22.784-8.828-37.362 11.772 7.504-24.317-10.211-29.631-14.575-37.33-4.364 7.699-22.08 13.013-14.577 37.33-14.576-20.601-37.361-11.772-37.361-11.772 22.05 13.322 33.687 31.601 33.687 31.601-39.505-17.349-54.818 15.799-54.818 15.799 63.699-4.027 73.069 51.582 73.069 51.582s9.218-55.609 73.069-51.582c-1e-3 0-15.314-33.147-54.819-15.799z"/>
<polygon transform="translate(-.038 -.045)" points="430.18 73.44 430.18 115.75 409.79 115.75 409.79 73.44 348.37 73.44 348.37 90.941 365.87 90.941 365.87 108.44 348.37 108.44 348.37 124.41 313.96 124.41 313.96 175.13 340.72 175.13 340.72 209.03 389.15 209.03 389.15 172.45 382.01 172.45 382.01 180.26 371.14 180.26 371.14 157.16 382.01 157.16 382.01 163.61 389.15 163.61 389.15 148.97 403.42 148.97 403.42 163.61 410.56 163.61 410.56 157.16 421.43 157.16 421.43 180.26 410.56 180.26 410.56 172.45 403.42 172.45 403.42 209.03 456.94 209.03 456.94 73.44"/>
<rect x="278.29" y="50.9" width="46.423" height="380.1"/>
<polygon transform="translate(-.038 -.045)" points="339.05 414.19 346.24 401.42 301.54 401.42 256.83 401.42 264.03 414.19 264.03 431.04 256.83 443.82 301.54 443.82 346.24 443.82 339.05 431.04"/>
<polygon transform="translate(-.038 -.045)" points="350.31 414.19 301.54 414.19 252.76 414.19 241.97 422.62 252.76 431.04 301.54 431.04 350.31 431.04 361.1 422.62"/>
</g>
</g>
<g>
<path d="m1.5 1.5v458.87c0 166.31 134.31 301.13 300 301.13 165.69 0 300-134.82 300-301.13v-458.87h-600z" fill="url(#a)"/>
<path d="m1.5 1.5v458.87c0 166.31 134.31 301.13 300 301.13 165.69 0 300-134.82 300-301.13v-458.87h-600z" fill="none" stroke="#000" stroke-width="3"/>
</g>
</svg>

<?xml version="1.0" encoding="UTF-8" standalone="no"?>
<svg
   xmlns:dc="http://purl.org/dc/elements/1.1/"
   xmlns:cc="http://creativecommons.org/ns#"
   xmlns:rdf="http://www.w3.org/1999/02/22-rdf-syntax-ns#"
   xmlns:svg="http://www.w3.org/2000/svg"
   xmlns="http://www.w3.org/2000/svg"
   xmlns:xlink="http://www.w3.org/1999/xlink"
   xmlns:sodipodi="http://sodipodi.sourceforge.net/DTD/sodipodi-0.dtd"
   xmlns:inkscape="http://www.inkscape.org/namespaces/inkscape"
   height="763"
   width="603"
   version="1.0"
   id="svg20"
   sodipodi:version="0.32"
   inkscape:version="0.46"
   sodipodi:docname="Giez-coat_of_arms.svg"
   sodipodi:docbase="C:\Documents and Settings\Steve\Bureau\Blason Villages Suisse pour Wikipédia (par Delta-9)"
   inkscape:output_extension="org.inkscape.output.svg.inkscape">
  <metadata
     id="metadata31">
    <rdf:RDF>
      <cc:Work
         rdf:about="">
        <dc:format>image/svg+xml</dc:format>
        <dc:type
           rdf:resource="http://purl.org/dc/dcmitype/StillImage" />
        <dc:date>07-AUG-2006</dc:date>
        <dc:creator>
          <cc:Agent>
            <dc:title>Jérôme BLUM (wagner51)</dc:title>
          </cc:Agent>
        </dc:creator>
        <cc:license
           rdf:resource="http://creativecommons.org/licenses/GPL/2.0/" />
        <dc:coverage />
        <dc:description>Gabarit pour le Projet:Blasons de WIkipédia</dc:description>
        <dc:subject>
          <rdf:Bag>
            <rdf:li>blason suisse modèle gabarit projet blasons</rdf:li>
          </rdf:Bag>
        </dc:subject>
        <dc:language>fr</dc:language>
        <dc:title>Gabrit d'un blason suisse</dc:title>
      </cc:Work>
      <cc:License
         rdf:about="http://creativecommons.org/licenses/GPL/2.0/">
        <cc:permits
           rdf:resource="http://web.resource.org/cc/Reproduction" />
        <cc:permits
           rdf:resource="http://web.resource.org/cc/Distribution" />
        <cc:requires
           rdf:resource="http://web.resource.org/cc/Notice" />
        <cc:permits
           rdf:resource="http://web.resource.org/cc/DerivativeWorks" />
        <cc:requires
           rdf:resource="http://web.resource.org/cc/ShareAlike" />
        <cc:requires
           rdf:resource="http://web.resource.org/cc/SourceCode" />
      </cc:License>
    </rdf:RDF>
  </metadata>
  <defs
     id="defs29"><inkscape:perspective
   sodipodi:type="inkscape:persp3d"
   inkscape:vp_x="0 : 381.5 : 1"
   inkscape:vp_y="0 : 1000 : 0"
   inkscape:vp_z="603 : 381.5 : 1"
   inkscape:persp3d-origin="301.5 : 254.33333 : 1"
   id="perspective28" />
<linearGradient
   id="linearGradient2893">
  <stop
     style="stop-color:#ffffff;stop-opacity:0.3137255;"
     offset="0"
     id="stop2895" />
  <stop
     id="stop2897"
     offset="0.19"
     style="stop-color:#ffffff;stop-opacity:0.25098041;" />
  <stop
     style="stop-color:#6b6b6b;stop-opacity:0.1254902;"
     offset="0.60000002"
     id="stop2901" />
  <stop
     style="stop-color:#000000;stop-opacity:0.1254902;"
     offset="1"
     id="stop2899" />
</linearGradient>
<linearGradient
   id="linearGradient2955">
  <stop
     style="stop-color:white;stop-opacity:0;"
     offset="0"
     id="stop2965" />
  <stop
     style="stop-color:black;stop-opacity:0.64583331;"
     offset="1"
     id="stop2959" />
</linearGradient>
<radialGradient
   inkscape:collect="always"
   xlink:href="#linearGradient2893"
   id="radialGradient3236"
   gradientUnits="userSpaceOnUse"
   gradientTransform="matrix(1.215027,1.531577e-24,1.464684e-23,1.266667,-839.1924,-490.4894)"
   cx="858.04236"
   cy="579.93323"
   fx="858.04236"
   fy="579.93323"
   r="300" />
<inkscape:perspective
   id="perspective2500"
   inkscape:persp3d-origin="297.63751 : 280.63 : 1"
   inkscape:vp_z="595.27502 : 420.94501 : 1"
   inkscape:vp_y="0 : 1000 : 0"
   inkscape:vp_x="0 : 420.94501 : 1"
   sodipodi:type="inkscape:persp3d" />

	
	
	
		
	

	

		
			
		
			
	
		
		
		
	
			
				
			
				
		</defs>
  <sodipodi:namedview
     inkscape:window-height="968"
     inkscape:window-width="1280"
     inkscape:pageshadow="2"
     inkscape:pageopacity="0.0"
     guidetolerance="10.0"
     gridtolerance="10.0"
     objecttolerance="10.0"
     borderopacity="1.0"
     bordercolor="#666666"
     pagecolor="#ffffff"
     id="base"
     inkscape:zoom="0.46326097"
     inkscape:cx="205.36113"
     inkscape:cy="61.125903"
     inkscape:window-x="1280"
     inkscape:window-y="22"
     inkscape:current-layer="layer2"
     showgrid="false"
     showguides="true"
     inkscape:guide-bbox="true">
    <sodipodi:guide
       orientation="horizontal"
       position="761.5"
       id="guide1885" />
    <sodipodi:guide
       orientation="vertical"
       position="1.5"
       id="guide1887" />
    <sodipodi:guide
       orientation="horizontal"
       position="1.5"
       id="guide1889" />
    <sodipodi:guide
       orientation="vertical"
       position="601.5"
       id="guide1891" />
    <sodipodi:guide
       orientation="vertical"
       position="301.50081"
       id="guide1893" />
  </sodipodi:namedview>
  <desc
     id="desc22">Coat of Arms of Canton of Freiburg (Fribourg)</desc>
  <g
     inkscape:groupmode="layer"
     id="layer1"
     inkscape:label="Fond écu"
     style="opacity:1;display:inline"
     sodipodi:insensitive="true">
    <path
       id="path1899"
       d="M 1.5,1.49998 L 1.5,460.3679 C 1.5,626.6785 135.81456,761.5 301.49999,761.5 C 467.18543,761.5 601.5,626.6785 601.5,460.3679 L 601.5,1.49998 L 1.5,1.49998 z"
       style="fill:#2b5df2;fill-opacity:1" />
  </g>
  <g
     inkscape:groupmode="layer"
     id="layer2"
     inkscape:label="Meubles"
     style="opacity:1;display:inline"
     sodipodi:insensitive="true">
    <g
       id="g2556">
      <circle
         transform="translate(-3.8e-2,-4.5e-2)"
         style="fill:#fcef3c;stroke:#000000;stroke-width:3;stroke-linecap:round;stroke-linejoin:round"
         sodipodi:ry="29.91"
         sodipodi:rx="29.91"
         sodipodi:cy="473.72699"
         sodipodi:cx="301.53699"
         cx="301.53699"
         cy="473.72699"
         r="29.91"
         id="circle2480" />
      <circle
         transform="translate(-3.8e-2,-4.5e-2)"
         style="fill:#fcef3c;stroke:#000000;stroke-width:3;stroke-linecap:round;stroke-linejoin:round"
         sodipodi:ry="20.212"
         sodipodi:rx="20.212"
         sodipodi:cy="686.302"
         sodipodi:cx="301.53699"
         cx="301.53699"
         cy="686.302"
         r="20.212"
         id="circle2482" />
      <path
         id="path2484"
         d="M 271.129,628.424 C 266.757,627.227 260.772,628.423 257.386,631.676 C 253.189,635.711 253.188,642.898 257.386,646.931 C 260.553,649.974 265.203,650.718 269.098,649.168 C 271.406,669.989 211.683,665.652 191.91,623.107 C 186.881,612.287 184.218,601.936 184.218,591.646 C 184.218,564.451 214.063,546.185 243.129,559.495 C 239.325,540.763 220.143,537.35 209.079,536.972 C 215.624,530.944 223.289,525.6 231.885,521.08 C 263.67,504.373 270.078,481.804 266.653,463.246 C 264.957,454.053 257.737,447.349 248.004,447.349 C 238.271,447.349 230.381,454.932 230.381,464.283 C 230.381,473.638 238.271,481.219 248.004,481.219 C 253.542,505.266 193.2,482.667 159.027,530.375 C 122.125,581.895 167.39,644.987 200.506,664.208 C 231.456,682.17 269.217,683.398 282.328,670.799 C 297.129,656.577 292.604,634.31 271.129,628.424 z M 443.97,530.374 C 409.798,482.666 349.456,505.265 354.992,481.218 C 364.725,481.218 372.615,473.638 372.615,464.282 C 372.615,454.931 364.725,447.348 354.992,447.348 C 345.26,447.348 338.04,454.052 336.344,463.245 C 332.919,481.803 339.326,504.372 371.113,521.079 C 379.709,525.599 387.373,530.942 393.917,536.971 C 382.855,537.35 363.672,540.762 359.868,559.494 C 388.935,546.184 418.779,564.45 418.779,591.645 C 418.779,601.935 416.116,612.286 411.087,623.106 C 391.315,665.651 331.592,669.988 333.9,649.167 C 337.796,650.717 342.444,649.973 345.611,646.93 C 349.809,642.897 349.809,635.71 345.611,631.675 C 342.226,628.422 336.241,627.226 331.869,628.423 C 310.393,634.309 305.868,656.575 320.67,670.797 C 333.781,683.397 371.542,682.168 402.491,664.206 C 435.608,644.987 480.871,581.894 443.97,530.374 z"
         style="fill:#fcef3c;stroke:#000000;stroke-width:3;stroke-linecap:round;stroke-linejoin:round" />
      <path
         id="path2486"
         d="M 319.75,594.502 C 319.75,594.502 331.388,576.224 353.437,562.901 C 353.437,562.901 330.653,554.073 316.075,574.673 C 323.579,550.356 305.864,545.042 301.5,537.343 C 297.136,545.042 279.42,550.356 286.923,574.673 C 272.347,554.072 249.562,562.901 249.562,562.901 C 271.612,576.223 283.249,594.502 283.249,594.502 C 243.744,577.153 228.431,610.301 228.431,610.301 C 292.13,606.274 301.5,661.883 301.5,661.883 C 301.5,661.883 310.718,606.274 374.569,610.301 C 374.568,610.301 359.255,577.154 319.75,594.502 z"
         style="fill:#fcef3c;stroke:#000000;stroke-width:3;stroke-linecap:round;stroke-linejoin:round" />
      <polygon
         transform="translate(-3.8e-2,-4.5e-2)"
         style="fill:#fcef3c;stroke:#000000;stroke-width:3;stroke-linecap:round;stroke-linejoin:round"
         points="430.184,73.44 430.184,115.749 409.793,115.749 409.793,73.44 348.369,73.44 348.369,90.941 365.871,90.941 365.871,108.442 348.369,108.442 348.369,124.414 313.962,124.414 313.962,175.133 340.724,175.133 340.724,209.031 389.149,209.031 389.149,172.447 382.013,172.447 382.013,180.263 371.139,180.263 371.139,157.155 382.013,157.155 382.013,163.611 389.149,163.611 389.149,148.967 403.421,148.967 403.421,163.611 410.558,163.611 410.558,157.155 421.432,157.155 421.432,180.263 410.558,180.263 410.558,172.447 403.421,172.447 403.421,209.031 456.944,209.031 456.944,73.44 430.184,73.44 "
         id="polygon2488" />
      <rect
         style="fill:#fcef3c;stroke:#000000;stroke-width:3;stroke-linecap:round;stroke-linejoin:round"
         id="rect4656_1_"
         x="278.28702"
         y="50.899998"
         width="46.423"
         height="380.095" />
      <polygon
         transform="translate(-3.8e-2,-4.5e-2)"
         points="339.048,414.193 346.245,401.415 301.537,401.415 256.83,401.415 264.026,414.193 264.026,431.041 256.83,443.817 301.537,443.817 346.245,443.817 339.048,431.041 339.048,414.193 "
         id="polygon4678_2_"
         style="fill:#fcef3c;stroke:#000000;stroke-width:3;stroke-linecap:round;stroke-linejoin:round" />
      <polygon
         transform="translate(-3.8e-2,-4.5e-2)"
         points="350.312,414.193 301.537,414.193 252.763,414.193 241.969,422.615 252.763,431.041 301.537,431.041 350.312,431.041 361.105,422.615 350.312,414.193 "
         id="polygon4680_2_"
         style="fill:#fcef3c;stroke:#000000;stroke-width:3;stroke-linecap:round;stroke-linejoin:round" />
    </g>
  </g>
  <g
     inkscape:groupmode="layer"
     id="layer3"
     inkscape:label="Reflet final"
     style="display:inline"
     sodipodi:insensitive="true">
    <path
       style="fill:url(#radialGradient3236);fill-opacity:1"
       d="M 1.5,1.5 L 1.5,460.3679 C 1.5,626.67854 135.81454,761.5 301.49993,761.5 C 467.1854,761.5 601.5,626.67854 601.5,460.3679 L 601.5,1.5 L 1.5,1.5 z"
       id="path2346" />
  </g>
  <g
     inkscape:groupmode="layer"
     id="layer4"
     inkscape:label="Contour final"
     style="display:inline"
     sodipodi:insensitive="true">
    <path
       style="fill:none;fill-opacity:1;stroke:#000000;stroke-width:3;stroke-miterlimit:4;stroke-dasharray:none;stroke-opacity:1"
       d="M 1.5,1.5 L 1.5,460.36794 C 1.5,626.67854 135.81454,761.5 301.49993,761.5 C 467.1854,761.5 601.5,626.67854 601.5,460.36794 L 601.5,1.5 L 1.5,1.5 z"
       id="path3239" />
  </g>
</svg>
